X:1
T: Kelton's Reel
T: Pig Town Fling
R:Reel
Q: 232
K:G
M:4/4
L:1/8
B2|G2 ge d2 ed|G2 ge dB AB|G2 ge d2 ed|BG AG EF GA|
G2 ge d2 ed|G2 ge dB AB|G2 ge d2 ed|BG AF G2 Be|
B2 e2 ef ge|fe df ed BA|B2 e2 ef ge|fg af g2 ed|
B2 e2 ef ge|fe df ed BA|B2 e2 ef ge|1fg af ge dB:|2fg af g2||
